X:1
T:Christine, La
M:2/4
L:1/8
S:Daubat - Cent Contredanses en Rond (1757), No. 9
Z:AK/Fiddler's Companion
K:G
G2 Bd | GFED | G2 Bd | G2 Bd | (gfg)d |
(cB)(AG) | (BA)(GF) | G2 G,2 :||: d2 dd |
edef | (gfg)e | f2d2 | AGAB | cBcA |
B2 AG | d2 dd | edef | (gfg)e | f2d2 |
B2 dB | AGAB cAGF | G2 G,2 :: D2 FG | DEFG |
D2 dc | B2A2 | D2 FA | D2 DB | AGFE |
F2 (ED) | A2 AA | BAB^c | d^cdB | ^c2A2 |
F2 AF | EDEF | GED^C | D4 | G2 Bd | GFED |
G2 Bd | G2 Bd | (gfg)d | (cB)(AG) | (BA)(GF) | G4 :|

